X:94
T:Katy Hill
M:2/4
L:1/8
K:G
D|GA Bd|(Tgf/)g/ ed|BG dG|A/B/A/G/ FD|GA Bd|(Tgf/)g/ ed|BG A/B/A/F/|G2 z::
Ld|(Tgf) ed|(Tgf) ed|BG dG|A/B/A/G/ FD|!crescendo(!GA Bd!crescendo)!|GA Bd|(Tgf/)g/ ed|BG A/B/A/F/|G2 z:|
%%%newpage
